X:4906
T:Evening Hymn. JC.007
M:4/4
L:1/4
Q:80
S:John Clare,Poet,Helpston. (1793-1864)
R:Hymn
O:England
A:Northamptonshire
N:MS has no time sig.
Z:P Headford
K:D
A|dddd|ee/f/4g/4 g/f/e/d/|ggff|e(e/f/ d2)|!
|a2g/f/e/d/|gfe(e/f/)|
dcBA|Bcd(e/f/4g/4)|fed2|]
W:Song text exists. See Deacon.
